X:1
T:Title
%%score ( 1 2 3 ) { ( 4 6 ) | 5 }
L:1/8
Q:1/4=105
M:4/4
K:Eb
V:1 treble nm="Drawbar Organ, Soprano"
V:2 treble 
V:3 treble 
V:4 bass nm="Church Organ, Now Dies in David�s City"
V:6 bass 
V:5 bass 
V:1
 [EG]2 [FB]2 [Ee]2 [DG]2 | F-[DF] B2- B/ z/ G [CE]2 | .E2 z2 z4 | GA [EG]4 z G | %4
w: By~John~Swire * * *||||
 =A [GB]2 A B =G2 B | c [Fd]2 c d [DB]2 =A | GFG=A B [Gc]2 [FB] | %7
w: |||
 [E=A] B2- [_AB]- [AB-][GB]- [G-B]/G/[DB]- | [DB] [EB]2 [EG] [FA] [GB]2 [Gc]- | %9
w: ||
 [Gc] [Ae]3- [Ae] [Ad]2 [Gc]- | [Gc] [FB]2 A G [EA]2 [FB]- | [FB] [EG]3- [EG]/ z/ z z2 | %12
w: |||
 z G2 [CE] [DF] [EG]2 [DG]- | [DG] c2- [Dc]- [Dc]/ z/ [EB]2 [EB]- | [EB] [EA]2 [EG]- [EG] [EF]2 G | %15
w: |||
 F [DF]3- [DF]/ z/ z z2 | z [GB][FA][EG] [FA] [GB]2 [FB]- | [FB] [Ee]3- [Ee] E2 [EF]- | %18
w: |||
 [EF][EG][FA][EB]- [EB] .G3 | D E3- E4- | E2 z2 z4 |] %21
w: |||
V:2
 x8 | .C2 E2 D2 z2 | B,-[B,D][A,C][B,D] [B,E]E [EF]2 | D2 z2 z4 | z2 z _G- G/ z/ z z E- | %5
 E z z E- E/ z/ z z =E- | E z z F- F/ z/ z z2 | z .D3 z4 | x8 | x8 | z2 z D- D/ z/ z z2 | %11
 z4 z E3- | E4 z4 | z .C3 z4 | z4 z2 z E- | E z z2 z4 | x8 | x8 | z4 z2 z F- | F z z2 z4 | x8 |] %21
V:3
 x8 | x8 | x8 | x8 | x8 | x8 | x8 | x8 | x8 | x8 | x8 | x8 | x8 | x8 | x8 | x8 | x8 | x8 | %18
 z4 z E3 | x8 | x8 |] %21
V:4
 B,2 B,2 G,2 G,2 | A,2 B,4 G,2 | B,2 A,2 B,2 C2 | B,2 B,4 z B, | C D2 C- C B,2[K:bass] B,- | %5
 B, B,2 =A,- A, B,2 C | B,=A,B,C B,G,[K:treble]ED | C B,2 C- C[K:bass] B,2 A,- | %8
 A, G,2 B,- B, B,2[K:treble] E- | E B,2 E- E B,2 C- | C[K:bass] F,2 B,- B, A,2 F,- | %11
 F, B,3- B,/ z/ z z2 | z[K:treble] C2 C C C2 G,- | G,[K:bass] A,2 F,- F,/ z/ B,2 B, | z8 | %15
 z4 z B,3- | B,4 z4 | z8 | z8 | z8 | z8 |] %21
V:5
 E,2 D,2 C,2 B,,2 | A,,2 G,,2 B,,2 C,2 | G,,2 A,,2 G,,2 A,,2 | B,,2 E,4 z E,- | %4
 E, B,,2 D,- D, G,2 _G,- | G, F,3- F,/ z/ =G,2 C,- | C, F,2 E, D, E,2 F,- | %7
 F, B,,3- B,,2- B,,/ z/ B,,- | B,, E,2 B,,- B,, E,2 E,- | E, F,2 B,,- B,, F,2 E,- | %10
 E, D,2 B,,- B,, C,2 D,- | D, E,3- E,/ z/ z z2 | z C,2 C, C, C,2 C,- | C, A,,3- A,,/ z/ G,,2 G,,- | %14
 G,, A,,2 A,,- A,, C,2 F,,- | F,, B,,3- B,,/ z/ z z2 | z2 z E, E, E,2 D,- | %17
 D, C,3- C,/ z/ C,2 =B,,- | B,, _B,,2 G,, A,, B,,2 B,,- | B,, E,3- E,4- | E,2 z2 z4 |] %21
V:6
 x8 | x8 | x8 | x8 | x7[K:bass] x | x8 | x6[K:treble] x2 | x5[K:bass] x3 | x7[K:treble] x | x8 | %10
 x[K:bass] x7 | x8 | x[K:treble] x7 | x[K:bass] x7 | _D C2 B,- B, =A,2 A,- | A, B,3- B,/ z/ z z2 | %16
 z E,2 B, B, B,2 B,- | B, G,2 F,- F,/ z/ G,2 A,- | A, B,2 B, CB,G,A,- | A, G,3- G,4- | G,2 z2 z4 |] %21

